X:3
T:'t Vagevuur
C:Bert Van Vreckem, januari 2000
R:Schottisch
Z:Bert Van Vreckem <http://flanders.blackmill.net/music/>
M:4/4
L:1/8
K:Gm 
"Gm"G,2 G,A, B,2 A,2|G,2 B,2 D2 G2|"D7"^FG AG ^F2 D2|E2 D2 B,2 ~A,2|\
"Gm"G,A,B,A, G,2 B,2|D2 G2 ^F2 G2|"D7"AG ^F4 F2|[1"Gm"G4 G4:|[2"Gm"G4 G2 GA||
|:"Gm"B2 A2 G2 ^F2|G2 D2 B,2 G,2|"D7"A,2 A,B, C2 A,2|"Gm"B,2 C2 D4|\
GA BA G2 ^F2|G2 D2 B,2 G,2|"D7"A,B, CA, ^F,2 ^F,2|[1"Gm"G,4 G,2 GA:|[2"Gm"G,4 G,4|]
